X:1
T:Title
%%score { 1 | 2 }
L:1/8
Q:1/4=100
M:4/8
K:G
V:1 treble nm="Grand Piano"
V:2 bass 
V:1
 [DB][DB][CG][DB] | [B,G]2 [B,D]2 | FAEF | [B,G]4 | [DB][DB][CA][DB] | [B,G]2 [B,D]2 | FAEF | %7
w: E.~O.~Excel * * *|||||||
 [B,G]4 | DDFF | [B,G]4 |] %10
w: |||
V:2
 [G,,G,][G,,G,][G,,G,][G,,G,] | [G,,G,]2 [G,,G,]2 | [D,A,C][D,F,C][D,A,C][D,A,C] | [G,,G,]4 | %4
 [G,,G,][G,,G,][G,,G,][G,,G,] | [G,,G,]2 [G,,G,]2 | [D,A,C][D,F,C][D,G,C][D,A,C] | [G,,G,]4 | %8
 [D,F,][D,F,][D,A,C][D,A,C] | [G,,G,]4 |] %10

